X:249
T:Over the Hills and Far Away
R:hp 32 reel
C:Trad. ed. Barry Callaghan
S:'Hard Core English' page 45B
O:England
B:Hard Core English ISBN 978 085418 201 5
Z:PJHeadford 2008
M:
L:1/16
Q:1/4=120
K:G
|:d2f2 d2f2|d2B2 B4|defe defd|g2e2 e4|
d2f2 d2f2|d2B2 g4|B2AG A2f2|g2e2 e4:|
|:a3b agfe|d2B2 B4|a3b a2gf|g2e2 e2fg|
a3b agfe|d2B2 g4|B2AG A2f2|g2e2 e4:|]
W:Widespread in MSs and prints, used in Beggars Opera.

